static/assets/img/icons/theme/map/marker-2.svg

<svg height="24" viewBox="0 0 24 24" width="24" xmlns="http://www.w3.org/2000/svg"><g fill="none" fill-rule="evenodd"><path d="m0 0h24v24h-24z" opacity="0"/><path d="m9.82829464 16.6565893c-2.80287895-.9138337-4.82829464-3.5486809-4.82829464-6.6565893 0-3.86599325 3.13400675-7 7-7 3.8659932 0 7 3.13400675 7 7 0 3.1079084-2.0254157 5.7427556-4.8282946 6.6565893l-2.1717054 4.3434107zm2.17170536-4.6565893c1.1045695 0 2-.8954305 2-2s-.8954305-2-2-2-2 .8954305-2 2 .8954305 2 2 2z" fill="#000"/></g></svg>

<svg width="24px" height="24px" viewBox="0 0 24 24" version="1.1" xmlns="http://www.w3.org/2000/svg" xmlns:xlink="http://www.w3.org/1999/xlink">
    <title>Icon For Marker#2</title>
    <g stroke="none" stroke-width="1" fill="none" fill-rule="evenodd">
        <rect opacity="0" x="0" y="0" width="24" height="24"></rect>
        <path d="M9.82829464,16.6565893 C7.02541569,15.7427556 5,13.1079084 5,10 C5,6.13400675 8.13400675,3 12,3 C15.8659932,3 19,6.13400675 19,10 C19,13.1079084 16.9745843,15.7427556 14.1717054,16.6565893 L12,21 L9.82829464,16.6565893 Z M12,12 C13.1045695,12 14,11.1045695 14,10 C14,8.8954305 13.1045695,8 12,8 C10.8954305,8 10,8.8954305 10,10 C10,11.1045695 10.8954305,12 12,12 Z" fill="#000000"></path>
    </g>
</svg>
